X:51
%%etbk:tnset id:17,pos:3,rep:3x,ant:
%%etbk:wsite http://www.thesession.org/tunes/display/73
%%etbk:skill ?
%%etbk:pldat 2013-11-23T15:59,2013-11-09T14:59,2013-11-04T18:18,2013-05-21T17:26,2013-05-07T19:16
T: Musical Priest, The
Z: Piano Box Version by Martin Fleischmann
H: Created 2013-02-19 /  Last Modified 2013-02-19
M: 4/4
L: 1/8
R: reel
K: Bmin
| !2!B3A !2!BcdB | !3!cccB !1!ABc!1!A | !2!F!5!B!2!BB !2!BcdB | !3!cBAc !2!B2BA |
| !2!F!5!B!2!BB !2!BcdB | !3!c2cB !1!ABc!1!A | !2!F!5!B!2!BB !2!BcdB | !3!cBAc !2!B2!2!B!3!c|
|:!4!d2!3!dc !3!d!5!fed | !2!c!1!A!4!eA !5!fA!4!eA | !3!d!2!c!1!B!2!c !1!d!2!e!3!f!5!b | !4!a!3!f!1!e!3!c !2!B2:|
| !5!b!1!B!3!fB !5!bBf!1!B | !3!cBAc !5!ecBA | !5!b!1!B!3!fB !5!bBfB | !4!cBAB !3!c!1!B !3!(3B!2!B!1!B |
!5!bB!3!fB !5!bBfB | !3!cBAc !5!ecBA |  !2!Bcd!3!c !1!defg | !5!a!3!f!1!e!3!c !4!d!2!BBA|
